X:1
T:Title
%%score 1 { 2 | 3 }
L:1/8
Q:1/4=95
M:3/4
K:C
V:1 treble nm="Grand Piano, Soprano"
V:2 bass nm="Choir Pad, Loyola, 87.87 D"
V:3 bass 
V:1
 [EG]>[EG] [Ec]3- [Ec]/[EG]/ | [CE]>[DF] [FA]2 [EG]2 | [EG]>[EG] [DG]3- [DG]/[DG]/ | %3
w: By~William~James~Kirkpatrick,~1888 * * * *|||
 [B,D]>[DF] [CE]4 | [EG]>[EG] [Ec]3- [Ec]/[EG]/ | [CE]>[DF] [FA]2 [EG]2 | %6
w: |||
 [Ec]>[Ec] [DB]3- [DB]/[DA]/ | [Dc]>[D^F] [DG]4 | G>G [Fd]3- [Fd]/[Fd]/ | [Fc]>[FB] [Ec]2 [EG]2 | %10
w: ||||
 [EG]>[EG] [Ec]3- [Ec]/[Ec]/ | [Gc]>[Gd] [Ge]4 | [^Ge]>[Gd] [Ec]3- [Ec]/[Ec]/ | %13
w: |||
 (3[F-d][Fc][FA] [EG]2 [CE]2 | [EG]>[Ge] [Fd]3- [Fd]/[Fd]/ | [FA]>[FB] [Ec]4- | [Ec]4 z2 |] %17
w: ||||
V:2
 C>C G,3- G,/G,/ | G,>G,[K:treble] C2 C2 | C>C B,3- B,/[K:bass]B,/ | G,>G, G,4 | C>C G,3- G,/G,/ | %5
 G,>G, C2 C2 | G,>G, G,3- G,/^F,/ | A,>C B,4 | B,>B, B,3- B,/B,/ | C>D C2 C2 | %10
 C>C[K:bass] G,3- G,/G,/ | C>B, C4 | B,>B,[K:treble] C3- C/C/ | A,>A, C2[K:bass] G,2 | %14
 G,>C B,3- B,/[K:treble]B,/ | D>D C4- | C4 z2 |] %17
V:3
 C,>C, C,3- C,/C,/ | C,>C, C,2 C,2 | C,>E, G,3- G,/G,/ | G,,>G,, C,4 | C,>C, C,3- C,/C,/ | %5
 C,>C, C,2 C,2 | C,>C, D,3- D,/D,/ | D,>D, [G,,G,]4 | G,>G, G,3- G,/G,/ | G,>G, C,2 C,2 | %10
 C,>C, C,3- C,/C,/ | E,>G, z2 z2 | E,>E, A,3- A,/A,/ | F,>F, C,2 C,2 | C,>C, G,3- G,/G,/ | %15
 G,>G, C,4- | C,4 z2 |] %17

